!!!COM:	Josquin des Prez
!!!CDT:	~1450-1521/08/27
!!!COA2: La Rue, Pierre de
!!!CDT2: ~1452///-1518/11/20/
!!!OPR:	Missa De beata virgine
!!!ONM:	1
!!!OTL:	Kyrie
!!!AGN:	Mass; Kyrie
!!!SCT:	NJE 3.3
!!!SCA:	New Josquin Edition 3.3
!!!voices:	4
!!!voices-OPR:	4-5
**kern	**kern	**kern	**kern
*Ivox	*Ivox	*Ivox	*Ivox
*I"Bassus	*I"Tenor	*I"Altus	*I"Superius
*I'B	*I'T	*I'A	*I'S
*staff4	*staff3	*staff2	*staff1
*clefF4	*clefGv2	*clefGv2	*clefG2
*k[b-]	*k[b-]	*k[b-]	*k[b-]
*M2/1	*M2/1	*M2/1	*M2/1
*met(C|)	*met(C|)	*met(C|)	*met(C|)
=1-	=1-	=1-	=1-
!!section: Kyrie I
!!!OMD: Kyrie I
0r	0r	0r	1g
.	.	.	1b-
=2	=2	=2	=2
0r	0r	0r	1cc
.	.	.	1dd
=3	=3	=3	=3
0r	0r	0r	2cc\
.	.	.	2b-\
.	.	.	1a
=4	=4	=4	=4
0r	1G	0r	2g/
.	.	.	1b-
.	1B-	.	.
.	.	.	2a/
=5	=5	=5	=5
0r	1c	0r	1g
.	1d	.	1f
=6	=6	=6	=6
0r	2c\	0r	2r
.	2B-\	.	1g
.	1A	.	.
.	.	.	2f/
=7	=7	=7	=7
0r	2G/	1d	2g/
.	1B-	.	1dd
.	.	1f	.
.	2A/	.	2cc\
=8	=8	=8	=8
0r	1G	1g	1b-
.	1F	1a	2a/
.	.	.	2ff\
=9	=9	=9	=9
0r	2c\	2g\	4ee\
.	.	.	4dd\
.	2d\	2f\	1dd
.	1A	1e	.
.	.	.	2cc\
=10	=10	=10	=10
1D	1r	2d\	2.ff\
.	.	1f	.
.	.	.	4ee\
1F	1A	.	4dd\
.	.	.	4cc\
.	.	2e\	[2cc\
=11	=11	=11	=11
1G	1B-	1d	2cc\]
.	.	.	2b-\
1A	2A/	1c	1cc
.	2c\	.	.
=12	=12	=12	=12
2G\	2B-\	2r	1dd
2F\	1A	1d	.
1E	.	.	1ee
.	2G/	2c\	.
=13	=13	=13	=13
0D	2B-\	2d\	1.ff
.	2A/	2e\	.
.	1d	[1f	.
.	.	.	2ee\
=14	=14	=14	=14
1r	1B-	2f\]	1dd
.	.	4e\	.
.	.	4d\	.
1A	1c	2e\	1cc
.	.	2f\	.
=15	=15	=15	=15
1G	1d	1.g	2b-\
.	.	.	2g/
[1B-	2r	.	[1dd
.	2d\	2f\	.
=16	=16	=16	=16
2B-\]	2B-\	2d\	2dd\]
2A\	2c\	2e\	2cc\
2F\	1d	2f\	2a/
[2G\	.	2d\	2b-\
=17	=17	=17	=17
2G\]	2r	2e\	2g/
2D\	2.d\	2.f\	2b-\
2F\	.	.	2a/
.	4c\	4e\	.
2G\	4B-\	[2d\	[2b-\
.	4A/	.	.
=18	=18	=18	=18
1E	1G	4d\]	4b-\]
.	.	4c#i\	4a/
.	.	4c#i\	2.g/
.	.	4Bni\	.
1D	1A	1d	.
.	.	.	4f#i/
.	.	.	4f#i/
.	.	.	4e/
=19	=19	=19	=19
1G	1G	2r	1g
.	.	1g	.
[1B-	2r	.	[1dd
.	2d\	2f\	.
=20	=20	=20	=20
2B-\]	2B-\	2d\	2dd\]
2A\	2c\	2e\	2cc\
2F\	1d	2f\	2a/
[2G\	.	2d\	2b-\
=21	=21	=21	=21
2G\]	2r	2e\	2g/
2D\	2.d\	2.f\	2b-\
2F\	.	.	2a/
.	4c\	4e\	.
2G\	4B-\	[2d\	[2b-\
.	4A/	.	.
=22	=22	=22	=22
1E	1G	4d\]	4b-\]
.	.	4c#i\	4a/
.	.	4c#i\	2.g/
.	.	4Bni\	.
1D	1A	[1dl	.
.	.	.	4f#i/
.	.	.	4f#i/
.	.	.	4e/
=23	=23	=23	=23
1r	[0Gl	0d_	[0gl
1G	.	.	.
=24	=24	=24	=24
0Gl	0G]	0d]	0g]
!!LO:LB:i:g=z
=25||	=25||	=25||	=25||
!!section: Christe
!!!OMD: Christe
*k[b-]	*k[b-]	*k[b-]	*k[b-]
*M2/1	*M2/1	*M2/1	*M2/1
*met(C|)	*met(C|)	*met(C|)	*met(C|)
0D	1r	0r	0r
.	[1A	.	.
=26	=26	=26	=26
1D	1A]	0r	0r
1C	1A	.	.
=27	=27	=27	=27
1.E-i	1G	0r	0r
.	[1B-	.	.
2D\	.	.	.
=28	=28	=28	=28
0D	2B-\]	0r	0r
.	2A/	.	.
.	[1A	.	.
=29	=29	=29	=29
1D	1A]	0r	0r
1C	1A	.	.
=30	=30	=30	=30
1.E-i	1G	0r	0r
.	[1B-	.	.
2D\	.	.	.
=31	=31	=31	=31
1D	2B-\]	0r	0r
.	2A/	.	.
1C	1A	.	.
=32	=32	=32	=32
1E-i	1G	0r	0r
2.D\	1B-	.	.
4C/	.	.	.
=33	=33	=33	=33
2D\	1A	0r	0r
1C	.	.	.
.	[1G	.	.
2BB-/	.	.	.
=34	=34	=34	=34
1C	1G]	0r	0r
1D	1F	.	.
=35	=35	=35	=35
1E-i	1G	0r	0r
[1D	1A	.	.
=36	=36	=36	=36
1D]	0B-	0r	0r
1BB-	.	.	.
=37	=37	=37	=37
1C	1A	0r	0r
1D	1F	.	.
=38	=38	=38	=38
1.E-i	1.G	0r	0r
2D\	2A/	.	.
=39	=39	=39	=39
[0D	1B-	0r	0r
.	1A	.	.
=40	=40	=40	=40
0D]	0A	0d	1r
.	.	.	[1a
=41	=41	=41	=41
0r	0r	1d	1a]
.	.	1c	1a
=42	=42	=42	=42
0r	0r	1.e-	1g
.	.	.	[1b-
.	.	2d\	.
=43	=43	=43	=43
0r	0r	0d	2b-\]
.	.	.	2a/
.	.	.	[1a
=44	=44	=44	=44
0r	0r	1d	1a]
.	.	1c	1a
=45	=45	=45	=45
0r	0r	1.e-i	1g
.	.	.	[1b-
.	.	2d\	.
=46	=46	=46	=46
0r	0r	1d	2b-\]
.	.	.	2a/
.	.	1c	1a
=47	=47	=47	=47
0r	0r	1e-i	1g
.	.	2.d\	1b-
.	.	4c\	.
=48	=48	=48	=48
0r	0r	2d\	1a
.	.	1c	.
.	.	.	[1g
.	.	2B-\	.
=49	=49	=49	=49
0r	0r	1c	1g]
.	.	1d	1f
=50	=50	=50	=50
0r	0r	1e-i	1g
.	.	[1d	1a
=51	=51	=51	=51
0r	0r	1d]	0b-
.	.	1B-	.
=52	=52	=52	=52
0r	0r	1c	1a
.	.	1d	1f
=53	=53	=53	=53
0r	0r	1.e-i	1g
.	.	.	1a
.	.	2d\	.
=54	=54	=54	=54
0r	0G	1d	0b-
.	.	1B-	.
=55	=55	=55	=55
0r	1A	1c	0a
.	1F	1d	.
=56	=56	=56	=56
0r	1G	0e-i	0r
.	1A	.	.
=57	=57	=57	=57
0BB-	0B-	1r	0r
.	.	1d	.
=58	=58	=58	=58
1C	1A	1e-i	1r
1D	1F	[1d	1a
=59	=59	=59	=59
0E-i	1.G	2d\]	2g/
.	.	4c\	2e/
.	.	4B-\	.
.	.	1c	1g
.	2A/	.	.
=60	=60	=60	=60
[0Dl	1B-	[0dl	[0fl
.	1A	.	.
=61	=61	=61	=61
0D]	0Al	0d]	0f]
!!LO:LB:i:g=z
=62||	=62||	=62||	=62||
!!section: Kyrie II
!!!OMD: Kyrie II
*k[b-]	*k[b-]	*k[b-]	*k[b-]
*M2/1	*M2/1	*M2/1	*M2/1
*met(C|)	*met(C|)	*met(C|)	*met(C|)
1G	0r	0d	0r
1B-	.	.	.
=63	=63	=63	=63
1A	0r	1f	0r
2G\	.	1g	.
[2B-\	.	.	.
=64	=64	=64	=64
2B-\]	0r	1g	0r
4A\	.	.	.
4G\	.	.	.
1A	.	1f	.
=65	=65	=65	=65
0G	1g	1g	0dd
.	1b-	1d	.
=66	=66	=66	=66
0r	1a	0r	1ff
.	2g\	.	1gg
.	[2b-\	.	.
=67	=67	=67	=67
0r	2b-\]	1r	1gg
.	4a\	.	.
.	4g\	.	.
.	1a	1d	1ff
=68	=68	=68	=68
2r	1.g	2e\	1gg
2.G\	.	1g	.
.	.	.	1dd
4A\	.	.	.
2B-\	2d\	[2f\	.
=69	=69	=69	=69
2F\	2f\	2f\]	0r
1B-	2g\	4e\	.
.	.	4d\	.
.	1e	1c	.
2A\	.	.	.
=70	=70	=70	=70
2B-\	1.d	2.B-\	0r
2G\	.	.	.
.	.	4c\	.
2B-\	.	4d\	.
.	.	4e\	.
2A\	2c\	2f\	.
=71	=71	=71	=71
2G\	2B-\	4e\	0r
.	.	4d\	.
2F\	1A	1d	.
1E	.	.	.
.	2G/	2c#i\	.
=72	=72	=72	=72
0D	2A/	0d	1r
.	1f	.	.
.	.	.	1dd
.	4e\	.	.
.	4d\	.	.
=73	=73	=73	=73
0r	1c	0r	2ee\
.	.	.	1gg
.	2.B-\	.	.
.	.	.	[2ff\
.	4c\	.	.
=74	=74	=74	=74
0r	4d\	0r	2ff\]
.	4e\	.	.
.	2.f\	.	4ee\
.	.	.	4dd\
.	.	.	1cc
.	4g\	.	.
.	2a\	.	.
=75	=75	=75	=75
0r	2b-\	0r	2.b-\
.	2g\	.	.
.	.	.	4cc\
.	2b-\	.	4dd\
.	.	.	4ee\
.	2a\	.	2ff\
=76	=76	=76	=76
0r	2g\	0r	2ee\
.	2f\	.	1dd
.	1e	.	.
.	.	.	2cc#i\
=77	=77	=77	=77
0D	0d	2r	0dd
.	.	2d\	.
.	.	2d\	.
.	.	[2f\	.
=78	=78	=78	=78
1F	0r	4f\]	0r
.	.	4e\	.
.	.	4d\	.
.	.	4c\	.
1G	.	2e-i\	.
.	.	[2d\	.
=79	=79	=79	=79
1G	0r	2d\]	0r
.	.	4c\	.
.	.	4B-\	.
1F	.	1A	.
=80	=80	=80	=80
1G	0d	1G	2r
.	.	.	2dd\
1D	.	1r	2dd\
.	.	.	[2ff\
=81	=81	=81	=81
0r	1f	0r	4ff\]
.	.	.	4ee\
.	.	.	4dd\
.	.	.	4cc\
.	1g	.	2ee-i\
.	.	.	[2dd\
=82	=82	=82	=82
0r	1g	0r	2dd\]
.	.	.	4cc\
.	.	.	4b-\
.	1f	.	1a
=83	=83	=83	=83
2r	1g	0r	0r
2G\	.	.	.
2.B-\	1d	.	.
4A\	.	.	.
=84	=84	=84	=84
2G\	2r	1r	0r
2F\	1d	.	.
1E	.	1g	.
.	2c\	.	.
=85	=85	=85	=85
0r	2d\	2.b-\	0r
.	1e-	.	.
.	.	4a\	.
.	.	2g\	.
.	2d\	2f\	.
=86	=86	=86	=86
0r	1c	1e	2r
.	.	.	2g/
.	1B-	1d	2.b-\
.	.	.	4a/
=87	=87	=87	=87
0r	2c\	0r	2g/
.	1d	.	2f/
.	.	.	1e
.	2c#i\	.	.
=88	=88	=88	=88
0r	0d	1r	1d
.	.	1a	2r
.	.	.	2a/
=89	=89	=89	=89
0r	0r	1g	4b-\
.	.	.	4cc\
.	.	.	4dd\
.	.	.	4ee\
.	.	2f\	2ff\
.	.	[2g\	[2ee\
=90	=90	=90	=90
1r	0r	4g\]	4ee\]
.	.	4f\	4dd\
.	.	4e\	1dd
.	.	4d\	.
1A	.	1e	.
.	.	.	2cc#i\
=91	=91	=91	=91
2.B-\	1r	0d	0dd
4A\	.	.	.
2F\	1d	.	.
2G\	.	.	.
=92	=92	=92	=92
4C/	1c	0r	0r
4D\	.	.	.
4E\	.	.	.
4F\	.	.	.
2G\	2B-\	.	.
[2A\	[2c\	.	.
=93	=93	=93	=93
2A\]	4c\]	1r	0r
.	4B-\	.	.
1G	4A/	.	.
.	4G/	.	.
.	1A	1a	.
2F#i\	.	.	.
=94	=94	=94	=94
0G	0G	2.b-\	1r
.	.	4a\	.
.	.	4g\	2r
.	.	4f\	.
.	.	[2g\	[2b-\
=95	=95	=95	=95
1r	0r	4g\]	2b-\]
.	.	4f\	.
.	.	1f	2a/
2r	.	.	1g
2C/	.	2e\	.
=96	=96	=96	=96
2D\	2r	1f	1f
4BB-/	1B-	.	.
4C/	.	.	.
4D\	.	1r	1r
4E\	.	.	.
[2F\	2A/	.	.
=97	=97	=97	=97
2F\]	1G	1r	2r
2E\	.	.	2g/
1F	1F	2r	2a/
.	.	[2f\	4f/
.	.	.	4g/
=98	=98	=98	=98
0r	0r	2f\]	4a/
.	.	.	4b-\
.	.	2e\	1cc
.	.	1d	.
.	.	.	2bni\
=99	=99	=99	=99
2r	2r	1c	1cc
4C/	1c	.	.
4D\	.	.	.
4E\	.	1r	1r
4F\	.	.	.
[2G\	2B-\	.	.
=100	=100	=100	=100
2G\]	1A	1r	2r
2F#i\	.	.	2a/
1G	1G	2r	2b-\
.	.	[2g\	4g/
.	.	.	4a/
=101	=101	=101	=101
1r	0r	2g\]	4b-\
.	.	.	4cc\
.	.	2f\	1dd
1A	.	1e	.
.	.	.	2cc\
=102	=102	=102	=102
2B-\	1.G	1d	2.dd\
2G\	.	.	.
.	.	.	4cc\
2.d\	.	2G/	2b-\
.	2F/	2A/	2a/
4c\	.	.	.
=103	=103	=103	=103
2B-\	2G/	2B-\	2dd\
2A\	2A/	2c\	2cc\
2G\	2B-\	2d\	2b-\
2F\	[2c\	2A/	[2a/
=104	=104	=104	=104
1E	4c\]	1c	4a/]
.	4B-\	.	4g/
.	4A/	.	1g
.	4G/	.	.
1D	1A	1d	.
.	.	.	2f/
=105	=105	=105	=105
2r	1.G	2.B-\	2.dd\
2d\	.	.	.
.	.	4G/	4cc\
2.d\	.	2G/	2b-\
.	2F/	2A/	2a/
4c\	.	.	.
=106	=106	=106	=106
2B-\	2G/	2B-\	2dd\
2A\	2A/	2c\	2cc\
2G\	2B-\	2d\	2b-\
2F\	[2c\	2A/	[2a/
=107	=107	=107	=107
1E	4c\]	1c	4a/]
.	4B-\	.	4g/
.	4A/	.	1g
.	4G/	.	.
1D	1A	1d	.
.	.	.	2f#i/
=108	=108	=108	=108
0Gl	0Gl	0dl	0gl
==	==	==	==
*-	*-	*-	*-
!!!RDF**kern: l=long note in original notation
!!!RDF**kern: i=editorial accidental
!!!RDF**kern: V=start of tuplet marker
!!!RDF**kern: Z=end of tuplet marker
!!!ENC:	Jesse Rodin 06-05-2012
!!!END:	2012/06/05/
!!!EED:	Jesse Rodin
!!!EEV:	2012/06/07/
!!attribution-level@Jos: 1 (secure)
!!attribution-level@Rue: 4 (doubtful)
!!!ONB:	Translated from MusicXML and edited on 2012/06/07/ by Craig Sapp
!!muse2ps: T^@{OPR}^u^@{ONM}{. }@{OTL}^C^Josquin/La Rue?\n@{SCT}^i2I150v85,85,85,150c90Q16
